X: 40411
T: Tom McElvogue's
R: jig
M: 6/8
K: Gmajor
DGB BAB|GBd dBd|edc dcB|ceg dfa|
gdB BAB|GBd dBd|edc dcB|1 cAF GFE:|2 cAF G3||
ded g2a|bag ged|~e3 a2b|c'ba age|
ded g2a|bag ged|e/f/ga gdB|cAF G3:|
|:d2d BdB|GFG Bdg|ecA dBG|F2G ABc|
d2d BdB|GFG Bdg|ecA dBG|FEF G3:|

